!!!COM: Gabrieli, Andrea
!!!CDT: ~1532///-1585/08/30/
!!!OTL: Ne confide
!!!OTL2: Non ti sdegnar
!!!ONM: No. 23
!!!SMS: Musica tolta da i madrigali di Claudio Monteverdi, e d'altri autori, e fatta spirituale
!!!PPR: A. Coppini, ed.
!!!PPP: Milan
!!!PDT: 1607
!!!URL: http://www.jpj.dk/coppini.htm
!!!AIN: contrafacta
**kern	**kern	**kern	**kern	**kern	**kern	**kern
*staff7	*staff6	*staff5	*staff4	*staff3	*staff2	*staff1
*Ivox	*Ivox	*Ivox	*Ivox	*Ivox	*Ivox	*Ivox
!B.C.	!basso	!tenore	!quinto	!alto	!sesto	!canto
*clefF4	*clefF4	*clefGv2	*clefG2	*clefG2	*clefG2	*clefG2
*k[]	*k[]	*k[]	*k[]	*k[]	*k[]	*k[]
*M4/4	*M4/4	*M4/4	*M4/4	*M4/4	*M4/4	*M4/4
*MM120	*MM120	*MM120	*MM120	*MM120	*MM120	*MM120
=1-	=1-	=1-	=1-	=1-	=1-	=1-
1A	1r	1A	2r	2r	1r	2r
.	.	.	2A/	2e/	.	2a/
=2	=2	=2	=2	=2	=2	=2
2A\	1r	2A/	2e/	2a/	1r	2cc#\
2D\	.	2D/	2f/	2a/	.	2dd\
=3	=3	=3	=3	=3	=3	=3
1A	1A	1A	2e/	2a/	2r	1cc#
.	.	.	4r	2e/	2a/	.
.	.	.	4A/	.	.	.
=4	=4	=4	=4	=4	=4	=4
2A\	2A\	1r	2e/	2a/	2cc#\	1r
2D\	2D\	.	2f/	2a/	2dd\	.
=5	=5	=5	=5	=5	=5	=5
2A\	1A	2r	2e/	2a/	1cc#	2r
2A\	.	2A/	2e/	2a/	.	2ee\
=6	=6	=6	=6	=6	=6	=6
2d\	1r	2d\	2d/	2.a/	1r	2ff\
2d\	.	2d\	2f#/	.	.	2dd\
.	.	.	.	4a/	.	.
=7	=7	=7	=7	=7	=7	=7
4c\	1r	4c\	4g/	4cc\	1r	4ee\
4d\	.	4d\	4f#/	4a/	.	4dd\
2G\	.	2G/	2g/	2b-\	.	2dd\
=8	=8	=8	=8	=8	=8	=8
2A\	2r	1A	2e/	[1a	2r	2cc#\
2A\	2A\	.	4r	.	2ee\	2cc#\
.	.	.	4e/	.	.	.
=9	=9	=9	=9	=9	=9	=9
2d\	2d\	1r	2d/	1a]	2ff\	2dd\
2d\	2d\	.	2f#/	.	2dd\	2a/
=10	=10	=10	=10	=10	=10	=10
4c\	4c\	1r	4g/	1r	4ee\	4cc\
4d\	4d\	.	4f#/	.	4dd\	4a/
2G\	2G\	.	2g/	.	2dd\	2b-\
=11	=11	=11	=11	=11	=11	=11
2A\	1A	2r	[1e	2r	2cc#\	2a/
2A\	.	2A/	.	2a/	2ee\	2cc\
=12	=12	=12	=12	=12	=12	=12
2e\	2r	1e	2e/]	1g#	[1ee	1b
2E\	2E\	.	2B/	.	.	.
=13	=13	=13	=13	=13	=13	=13
2A\	1A	2r	4c/	2r	1ee]	2r
.	.	.	4c/	.	.	.
2A\	.	2A/	[2e/	2a/	.	2cc\
=14	=14	=14	=14	=14	=14	=14
2e\	2r	2.e\	4e/]	1g#	2r	2.b\
.	.	.	4e/	.	.	.
2E\	2E\	.	4B/	.	2ee\	.
.	.	4e\	4e/	.	.	4b\
=15	=15	=15	=15	=15	=15	=15
2.A\	2.A\	4c\	1e	2a/	2.ee\	2cc\
.	.	4A/	.	.	.	.
.	.	2c\	.	[2a/	.	2cc\
4A\	4A\	.	.	.	4ee\	.
=16	=16	=16	=16	=16	=16	=16
4F\	4F\	4A/	2d/	4a/]	4ff\	2dd\
4D\	4D\	4A/	.	4f/	4ff\	.
2F\	2F\	8A/	2r	2f/	2ff\	2cc\
.	.	8A/	.	.	.	.
.	.	8A/	.	.	.	.
.	.	8A/	.	.	.	.
=17	=17	=17	=17	=17	=17	=17
4C/	4C/	4c\	4r	4g/	4ee\	4r
4C/	4C/	4G/	4c/	4g/	4cc\	4ee\
8C/L	8C/	2r	8c/	8g/	8cc\	8ee\
8C/J	8C/	.	8c/	8g/	8cc\	8ee\
8C/L	8C/	.	8c/	8g/	8cc\	8ee\
8C/J	8C/	.	8c/	8g/	8cc\	8ee\
=18	=18	=18	=18	=18	=18	=18
4G\	4G\	4r	4d/	4g/	4b\	4dd\
8D\L	8D\	4A/	8d/	8f#/	8a/	8dd\
8D\J	8D\	.	8d/	8f#/	8a/	8dd\
8D\L	8D\	8A/	8d/	8a/	8dd\	8ff\
8D\J	8D\	8A/	8d/	8a/	8dd\	8ff\
8D\L	8D\	8A/	8d/	8a/	8dd\	8ff\
8D\J	8D\	8A/	8d/	8a/	8dd\	8ff\
=19	=19	=19	=19	=19	=19	=19
4F\	4F\	4A/	4A/	4f/	4cc\	4ff\
4C/	4C/	4G/	4c/	4g/	4cc\	4ee\
4r	4r	2r	4r	4r	4r	2r
4G\	4G\	.	4d/	4g/	4b\	.
=20	=20	=20	=20	=20	=20	=20
2E\	2E\	2r	2e/	1g	2cc\	2r
2G\	2G\	4r	2d/	.	[2b\	4r
.	.	4G/	.	.	.	4dd\
=21	=21	=21	=21	=21	=21	=21
2.C/	2.C/	2G/	4.c/	1e	2b\]	2ee\
.	.	.	8d/	.	.	.
.	.	2c\	[2e/	.	[2a/	2ee\
4D\	4D\	.	.	.	.	.
=22	=22	=22	=22	=22	=22	=22
1E	1E	1B	2e/]	1e	2a/]	1ee
.	.	.	2B/	.	2g#/	.
=23	=23	=23	=23	=23	=23	=23
1A	1A	1A	1r	1e	1a	1cc#
=24	=24	=24	=24	=24	=24	=24
2r	1r	1r	1r	1r	1r	2r
2A\	.	.	.	.	.	[2ee\
=25	=25	=25	=25	=25	=25	=25
[1A	1r	[1A	[1c#	[1e	1r	2ee\]
.	.	.	.	.	.	2a/
=26	=26	=26	=26	=26	=26	=26
2A\]	1r	2A/]	2c#/]	2e/]	1r	[1a
2D\	.	2D/	2d/	2f#/	.	.
=27	=27	=27	=27	=27	=27	=27
2D\	1r	2D/	2d/	2f#/	1r	2a/]
4C/	.	4C/	4e/	4g/	.	4cc\
4C/	.	4C/	4e/	4g/	.	4cc\
=28	=28	=28	=28	=28	=28	=28
2G\	1r	2G/	2.d/	2g/	1r	2b\
[2G\	.	[2G/	.	2g/	.	[2ee\
.	.	.	[4c/	.	.	.
=29	=29	=29	=29	=29	=29	=29
4G\]	1r	4G/]	4c/]	2g/	1r	4ee\]
4G\	.	4G/	4B/	.	.	2dd\
2G\	.	2G/	4e/	2g/	.	.
.	.	.	[4e/	.	.	4cc\
=30	=30	=30	=30	=30	=30	=30
1G	1r	1G	4e/]	1g	1r	4cc\
.	.	.	8d/L	.	.	8b/L
.	.	.	8c/J	.	.	8a/J
.	.	.	2d/	.	.	2b\
=31	=31	=31	=31	=31	=31	=31
2.A\	2r	1A	4c#/	2e/	2r	4a/
.	.	.	4c#/	.	.	4a/
.	4r	.	4e/	2a/	4r	4cc#\
4A\	4A\	.	4e/	.	4ee\	4cc#\
=32	=32	=32	=32	=32	=32	=32
4D\	4D\	4r	1d	4a/	4ff#\	1dd
4D\	4D\	4d\	.	4a/	4ff#\	.
2G\	2G\	4G/	.	2b\	2gg\	.
.	.	4G/	.	.	.	.
=33	=33	=33	=33	=33	=33	=33
2C/	2C/	2c\	2e/	2g/	2ee\	2cc\
2F\	4c\	2F/	4a/	2r	4ff\	4cc\
.	4c\	.	4a/	.	4ff\	4cc\
=34	=34	=34	=34	=34	=34	=34
4c\	4c\	1r	4g/	1r	4ee\	4cc\
4d\	4d\	.	4f/	.	4dd\	4a/
2B\	2B\	.	2d/	.	2dd\	2g#/
=35	=35	=35	=35	=35	=35	=35
2A\	2A\	2r	2e/	2r	2cc#\	2a/
4c\	2r	4c\	4g/	4cc\	2r	4ee\
4c\	.	4c\	4g/	4cc\	.	4ee\
=36	=36	=36	=36	=36	=36	=36
4c\	1r	4c\	4g/	4cc\	1r	4ee\
4d\	.	4d\	4f/	4a/	.	4dd\
2B\	.	2B\	2d/	2g#/	.	2dd\
=37	=37	=37	=37	=37	=37	=37
2A\	2r	[1A	2e/	2a/	2r	1cc#
2A\	2A\	.	4r	2a/	2ee\	.
.	.	.	4e/	.	.	.
=38	=38	=38	=38	=38	=38	=38
4D\	4D\	1A]	4d/	4a/	4ff\	1r
4C#/	4C#/	.	4a/	4e/	4ee\	.
4D\	4D\	.	4a/	4f/	4dd\	.
4D\	4D\	.	4f/	4a/	4dd\	.
=39	=39	=39	=39	=39	=39	=39
2A\	1A	2A/	2e/	1a	2cc#\	2ee\
4D\	.	4D/	2a/	.	4dd\	4ff\
4C#/	.	4C#/	.	.	4a/	4ee\
=40	=40	=40	=40	=40	=40	=40
4D\	2A\	4D/	2r	2f/	4a/	4dd\
4D\	.	4D/	.	.	4a/	4dd\
2A\	2A\	2A/	2e/	4r	4a/	2cc#\
.	.	.	.	4e/	4a/	.
=41	=41	=41	=41	=41	=41	=41
4D\	4D\	1A	4f/	4d/	2a/	4dd\
4C#/	4C#/	.	4e/	4A/	.	4ee\
4D\	4D\	.	4d/	4A/	2a/	4ff\
4D\	4D\	.	4d/	4d/	.	4ff\
=42	=42	=42	=42	=42	=42	=42
2A\	2A\	2r	2c#/	2e/	2.a/	4ee\
.	.	.	.	.	.	4ee\
2D\	2D\	[2A/	2d/	2f/	.	2dd\
.	.	.	.	.	8b\L	.
.	.	.	.	.	8cc\J	.
=43	=43	=43	=43	=43	=43	=43
2D\	2D\	2A/]	2f/	2d/	2dd\	4a/
.	.	.	.	.	.	2a/
2A\	2A\	2A/	2e/	4e/	2cc\	.
.	.	.	.	[4a/	.	4ee\
=44	=44	=44	=44	=44	=44	=44
1E	1E	1B	1e	4a/]	1b	1ee
.	.	.	.	8g#/L	.	.
.	.	.	.	8f#/J	.	.
.	.	.	.	2g#/	.	.
=45	=45	=45	=45	=45	=45	=45
1A	1A	1A	1e	1a	1cc#	1ee
=46	=46	=46	=46	=46	=46	=46
2r	1r	1r	1r	1r	2r	1r
2A\	.	.	.	.	[2ee\	.
=47	=47	=47	=47	=47	=47	=47
[1A	[1A	1r	[1c#	[1e	2ee\]	1r
.	.	.	.	.	2a/	.
=48	=48	=48	=48	=48	=48	=48
2A\]	2A\]	1r	2c#/]	2e/]	[1a	1r
2D\	2D\	.	2d/	2f#/	.	.
=49	=49	=49	=49	=49	=49	=49
2D\	2D\	1r	2d/	2f#/	2a/]	1r
4C/	4C/	.	4e/	4g/	4cc\	.
4C/	4C/	.	4e/	4g/	4cc\	.
=50	=50	=50	=50	=50	=50	=50
2G\	2G\	1r	2.d/	2g/	2b\	1r
[2G\	2G\	.	.	2g/	[2ee\	.
.	.	.	[4c/	.	.	.
=51	=51	=51	=51	=51	=51	=51
4G\]	4G\	1r	4c/]	2g/	4ee\]	1r
4G\	4G\	.	4B/	.	2dd\	.
2G\	2G\	.	4e/	2g/	.	.
.	.	.	[4e/	.	4cc\	.
=52	=52	=52	=52	=52	=52	=52
1G	1G	1r	4e/]	1g	4cc\	1r
.	.	.	8d/L	.	8b/L	.
.	.	.	8c/J	.	8a/J	.
.	.	.	2d/	.	2b\	.
=53	=53	=53	=53	=53	=53	=53
2.A\	1A	2r	4c#/	2e/	4a/	2r
.	.	.	4c#/	.	4a/	.
.	.	4r	4e/	2a/	4cc#\	4r
4A\	.	4A/	4e/	.	4cc#\	4ee\
=54	=54	=54	=54	=54	=54	=54
4D\	4r	4D/	1d	4a/	1dd	4ff#\
4D\	4d\	4D/	.	4a/	.	4ff#\
4G\	4G\	2G/	.	2b\	.	2gg\
4G\	4G\	.	.	.	.	.
=55	=55	=55	=55	=55	=55	=55
2C/	2c\	2C/	2e/	2g/	2cc\	2ee\
2F\	2F\	4c\	4a/	2r	4cc\	4ff\
.	.	4c\	4a/	.	4cc\	4ff\
=56	=56	=56	=56	=56	=56	=56
4c\	1r	4c\	4g/	1r	4cc\	4ee\
4d\	.	4d\	4f/	.	4a/	4dd\
2B\	.	2B\	2d/	.	2g#/	2dd\
=57	=57	=57	=57	=57	=57	=57
2A\	2r	2A/	2e/	2r	2a/	2cc#\
4c\	4c\	2r	4g/	4cc\	4ee\	2r
4c\	4c\	.	4g/	4cc\	4ee\	.
=58	=58	=58	=58	=58	=58	=58
4c\	4c\	1r	4g/	4cc\	4ee\	1r
4d\	4d\	.	4f/	4a/	4dd\	.
2B\	2B\	.	2d/	2g#/	2dd\	.
=59	=59	=59	=59	=59	=59	=59
2A\	[1A	2r	2e/	2a/	1cc#	2r
2A\	.	2A/	4r	2a/	.	2ee\
.	.	.	4e/	.	.	.
=60	=60	=60	=60	=60	=60	=60
4D\	1A]	4D/	4d/	4a/	1r	4ff\
4C#/	.	4C#/	4a/	4e/	.	4ee\
4D\	.	4D/	4a/	4f/	.	4dd\
4D\	.	4D/	4f/	4a/	.	4dd\
=61	=61	=61	=61	=61	=61	=61
2A\	2A\	1A	2e/	1a	2ee\	2cc#\
4D\	4D\	.	2a/	.	4ff\	4dd\
4C#/	4C#/	.	.	.	4ee\	4a/
=62	=62	=62	=62	=62	=62	=62
4D\	4D\	2A/	2r	2f/	4dd\	4a/
4D\	4D\	.	.	.	4dd\	4a/
2A\	2A\	2A/	2e/	4r	2cc#\	4a/
.	.	.	.	4e/	.	4a/
=63	=63	=63	=63	=63	=63	=63
4D\	1A	4D/	4f/	4d/	4dd\	2a/
4C#/	.	4C#/	4e/	4A/	4ee\	.
4D\	.	4D/	4d/	4A/	4ff\	2a/
4D\	.	4D/	4d/	4d/	4ff\	.
=64	=64	=64	=64	=64	=64	=64
2A\	2r	2A/	2c#/	2e/	4ee\	2.a/
.	.	.	.	.	4ee\	.
2D\	[2D\	2A/	2d/	2f/	2dd\	.
.	.	.	.	.	.	8b\L
.	.	.	.	.	.	8cc\J
=65	=65	=65	=65	=65	=65	=65
2D\	2D\]	2A/	2f/	2d/	4a/	2dd\
.	.	.	.	.	2a/	.
2A\	2A\	2A/	2e/	4e/	.	2cc\
.	.	.	.	[4a/	4ee\	.
=66	=66	=66	=66	=66	=66	=66
1E	1E	1B	1e	4a/]	1ee	1b
.	.	.	.	8g#/L	.	.
.	.	.	.	8f#/J	.	.
.	.	.	.	2g#/	.	.
=67	=67	=67	=67	=67	=67	=67
1A;	1A;	1A;	1e;	1a;	1ee;	1cc#;
==	==	==	==	==	==	==
*-	*-	*-	*-	*-	*-	*-
!!!ENC: Craig Stuart Sapp
!!!END: 2004/12/10/
